images/3234456.svg

<?xml version="1.0" encoding="UTF-8"?>
<svg xmlns="http://www.w3.org/2000/svg" xmlns:xlink="http://www.w3.org/1999/xlink" width="300pt" height="300pt" viewBox="0 0 300 300" version="1.1">
<defs>
<g>
<symbol overflow="visible" id="glyph0-0">
<path style="stroke:none;" d="M 0.453125 1.59375 L 0.453125 -6.34375 L 4.953125 -6.34375 L 4.953125 1.59375 Z M 0.953125 1.09375 L 4.453125 1.09375 L 4.453125 -5.84375 L 0.953125 -5.84375 Z M 0.953125 1.09375 "/>
</symbol>
<symbol overflow="visible" id="glyph0-1">
<path style="stroke:none;" d="M 0.890625 -6.5625 L 2.078125 -6.5625 L 4.984375 -1.078125 L 4.984375 -6.5625 L 5.84375 -6.5625 L 5.84375 0 L 4.65625 0 L 1.75 -5.484375 L 1.75 0 L 0.890625 0 Z M 0.890625 -6.5625 "/>
</symbol>
<symbol overflow="visible" id="glyph0-2">
<path style="stroke:none;" d="M 0.890625 -6.5625 L 1.765625 -6.5625 L 1.765625 -3.875 L 5 -3.875 L 5 -6.5625 L 5.890625 -6.5625 L 5.890625 0 L 5 0 L 5 -3.125 L 1.765625 -3.125 L 1.765625 0 L 0.890625 0 Z M 0.890625 -6.5625 "/>
</symbol>
</g>
</defs>
<g id="surface51373">
<rect x="0" y="0" width="300" height="300" style="fill:rgb(100%,100%,100%);fill-opacity:1;stroke:none;"/>
<path style="fill:none;stroke-width:1.2;stroke-linecap:butt;stroke-linejoin:miter;stroke:rgb(0%,0%,0%);stroke-opacity:1;stroke-miterlimit:10;" d="M 257.714844 234.0625 L 248.875 210.625 "/>
<path style="fill:none;stroke-width:1.2;stroke-linecap:butt;stroke-linejoin:miter;stroke:rgb(0%,0%,0%);stroke-opacity:1;stroke-miterlimit:10;" d="M 248.875 210.625 L 224.15625 206.5625 "/>
<path style="fill:none;stroke-width:1.2;stroke-linecap:butt;stroke-linejoin:miter;stroke:rgb(0%,0%,0%);stroke-opacity:1;stroke-miterlimit:10;" d="M 247.355469 204.402344 L 227.582031 201.152344 "/>
<path style="fill:none;stroke-width:1.2;stroke-linecap:butt;stroke-linejoin:miter;stroke:rgb(0%,0%,100%);stroke-opacity:1;stroke-miterlimit:10;" d="M 264.75 191.25 L 256.8125 200.9375 "/>
<path style="fill:none;stroke-width:1.2;stroke-linecap:butt;stroke-linejoin:miter;stroke:rgb(0%,0%,0%);stroke-opacity:1;stroke-miterlimit:10;" d="M 256.8125 200.9375 L 248.875 210.625 "/>
<path style="fill:none;stroke-width:1.2;stroke-linecap:butt;stroke-linejoin:miter;stroke:rgb(0%,0%,0%);stroke-opacity:1;stroke-miterlimit:10;" d="M 224.15625 206.5625 L 219.734375 194.84375 "/>
<path style="fill:none;stroke-width:1.2;stroke-linecap:butt;stroke-linejoin:miter;stroke:rgb(0%,0%,100%);stroke-opacity:1;stroke-miterlimit:10;" d="M 219.734375 194.84375 L 215.3125 183.125 "/>
<path style="fill:none;stroke-width:1.2;stroke-linecap:butt;stroke-linejoin:miter;stroke:rgb(0%,0%,100%);stroke-opacity:1;stroke-miterlimit:10;" d="M 215.3125 183.125 L 223.25 173.4375 "/>
<path style="fill:none;stroke-width:1.2;stroke-linecap:butt;stroke-linejoin:miter;stroke:rgb(0%,0%,0%);stroke-opacity:1;stroke-miterlimit:10;" d="M 223.25 173.4375 L 231.191406 163.75 "/>
<path style="fill:none;stroke-width:1.2;stroke-linecap:butt;stroke-linejoin:miter;stroke:rgb(0%,0%,100%);stroke-opacity:1;stroke-miterlimit:10;" d="M 221.460938 184.921875 L 227.8125 177.171875 "/>
<path style="fill:none;stroke-width:1.2;stroke-linecap:butt;stroke-linejoin:miter;stroke:rgb(0%,0%,0%);stroke-opacity:1;stroke-miterlimit:10;" d="M 227.8125 177.171875 L 234.160156 169.421875 "/>
<path style=" stroke:none;fill-rule:nonzero;fill:rgb(100%,100%,100%);fill-opacity:1;" d="M 212.3125 177.625 L 219.3125 177.625 L 219.3125 188.625 L 212.3125 188.625 Z M 212.3125 177.625 "/>
<g style="fill:rgb(0%,0%,100%);fill-opacity:1;">
  <use xlink:href="#glyph0-1" x="212.3125" y="186.288086"/>
</g>
<path style="fill:none;stroke-width:1.2;stroke-linecap:butt;stroke-linejoin:miter;stroke:rgb(0%,0%,0%);stroke-opacity:1;stroke-miterlimit:10;" d="M 231.191406 163.75 L 255.910156 167.8125 "/>
<path style="fill:none;stroke-width:1.2;stroke-linecap:butt;stroke-linejoin:miter;stroke:rgb(0%,0%,0%);stroke-opacity:1;stroke-miterlimit:10;" d="M 231.191406 163.75 L 222.347656 140.3125 "/>
<path style="fill:none;stroke-width:1.2;stroke-linecap:butt;stroke-linejoin:miter;stroke:rgb(0%,0%,0%);stroke-opacity:1;stroke-miterlimit:10;" d="M 255.910156 167.8125 L 260.328125 179.53125 "/>
<path style="fill:none;stroke-width:1.2;stroke-linecap:butt;stroke-linejoin:miter;stroke:rgb(0%,0%,100%);stroke-opacity:1;stroke-miterlimit:10;" d="M 260.328125 179.53125 L 264.75 191.25 "/>
<path style="fill:none;stroke-width:1.2;stroke-linecap:butt;stroke-linejoin:miter;stroke:rgb(0%,0%,0%);stroke-opacity:1;stroke-miterlimit:10;" d="M 251.277344 172.234375 L 254.8125 181.609375 "/>
<path style="fill:none;stroke-width:1.2;stroke-linecap:butt;stroke-linejoin:miter;stroke:rgb(0%,0%,100%);stroke-opacity:1;stroke-miterlimit:10;" d="M 254.8125 181.609375 L 258.351562 190.984375 "/>
<path style=" stroke:none;fill-rule:nonzero;fill:rgb(100%,100%,100%);fill-opacity:1;" d="M 261.75 185.75 L 268.75 185.75 L 268.75 196.75 L 261.75 196.75 Z M 261.75 185.75 "/>
<g style="fill:rgb(0%,0%,100%);fill-opacity:1;">
  <use xlink:href="#glyph0-1" x="261.75" y="194.413086"/>
</g>
<path style="fill:none;stroke-width:1.2;stroke-linecap:butt;stroke-linejoin:miter;stroke:rgb(0%,0%,0%);stroke-opacity:1;stroke-miterlimit:10;" d="M 222.347656 140.3125 L 209.988281 138.28125 "/>
<path style="fill:none;stroke-width:1.2;stroke-linecap:butt;stroke-linejoin:miter;stroke:rgb(0%,0%,100%);stroke-opacity:1;stroke-miterlimit:10;" d="M 209.988281 138.28125 L 197.628906 136.25 "/>
<path style="fill:none;stroke-width:1.2;stroke-linecap:butt;stroke-linejoin:miter;stroke:rgb(0%,0%,100%);stroke-opacity:1;stroke-miterlimit:10;" d="M 197.628906 136.25 L 193.207031 124.53125 "/>
<path style="fill:none;stroke-width:1.2;stroke-linecap:butt;stroke-linejoin:miter;stroke:rgb(0%,0%,0%);stroke-opacity:1;stroke-miterlimit:10;" d="M 193.207031 124.53125 L 188.789062 112.8125 "/>
<path style=" stroke:none;fill-rule:nonzero;fill:rgb(100%,100%,100%);fill-opacity:1;" d="M 190.628906 130.75 L 204.628906 130.75 L 204.628906 141.75 L 190.628906 141.75 Z M 190.628906 130.75 "/>
<g style="fill:rgb(0%,0%,100%);fill-opacity:1;">
  <use xlink:href="#glyph0-1" x="190.628906" y="139.413086"/>
  <use xlink:href="#glyph0-2" x="197.606445" y="139.413086"/>
</g>
<path style="fill:none;stroke-width:1.2;stroke-linecap:butt;stroke-linejoin:miter;stroke:rgb(0%,0%,0%);stroke-opacity:1;stroke-miterlimit:10;" d="M 188.789062 112.8125 L 196.726562 103.125 "/>
<path style="fill:none;stroke-width:1.2;stroke-linecap:butt;stroke-linejoin:miter;stroke:rgb(0%,0%,100%);stroke-opacity:1;stroke-miterlimit:10;" d="M 196.726562 103.125 L 204.664062 93.4375 "/>
<path style="fill:none;stroke-width:1.2;stroke-linecap:butt;stroke-linejoin:miter;stroke:rgb(0%,0%,0%);stroke-opacity:1;stroke-miterlimit:10;" d="M 185.816406 107.140625 L 192.167969 99.390625 "/>
<path style="fill:none;stroke-width:1.2;stroke-linecap:butt;stroke-linejoin:miter;stroke:rgb(0%,0%,100%);stroke-opacity:1;stroke-miterlimit:10;" d="M 192.167969 99.390625 L 198.519531 91.640625 "/>
<path style="fill:none;stroke-width:1.2;stroke-linecap:butt;stroke-linejoin:miter;stroke:rgb(0%,0%,0%);stroke-opacity:1;stroke-miterlimit:10;" d="M 164.070312 108.75 L 188.789062 112.8125 "/>
<path style="fill:none;stroke-width:1.2;stroke-linecap:butt;stroke-linejoin:miter;stroke:rgb(0%,0%,100%);stroke-opacity:1;stroke-miterlimit:10;" d="M 204.664062 93.4375 L 200.242188 81.71875 "/>
<path style="fill:none;stroke-width:1.2;stroke-linecap:butt;stroke-linejoin:miter;stroke:rgb(0%,0%,0%);stroke-opacity:1;stroke-miterlimit:10;" d="M 200.242188 81.71875 L 195.824219 70 "/>
<path style=" stroke:none;fill-rule:nonzero;fill:rgb(100%,100%,100%);fill-opacity:1;" d="M 201.664062 87.9375 L 208.664062 87.9375 L 208.664062 98.9375 L 201.664062 98.9375 Z M 201.664062 87.9375 "/>
<g style="fill:rgb(0%,0%,100%);fill-opacity:1;">
  <use xlink:href="#glyph0-1" x="201.664062" y="96.600586"/>
</g>
<path style="fill:none;stroke-width:1.2;stroke-linecap:butt;stroke-linejoin:miter;stroke:rgb(0%,0%,0%);stroke-opacity:1;stroke-miterlimit:10;" d="M 195.824219 70 L 183.464844 67.96875 "/>
<path style="fill:none;stroke-width:1.2;stroke-linecap:butt;stroke-linejoin:miter;stroke:rgb(0%,0%,100%);stroke-opacity:1;stroke-miterlimit:10;" d="M 183.464844 67.96875 L 171.105469 65.9375 "/>
<path style="fill:none;stroke-width:1.2;stroke-linecap:butt;stroke-linejoin:miter;stroke:rgb(0%,0%,0%);stroke-opacity:1;stroke-miterlimit:10;" d="M 192.394531 75.410156 L 182.507812 73.785156 "/>
<path style="fill:none;stroke-width:1.2;stroke-linecap:butt;stroke-linejoin:miter;stroke:rgb(0%,0%,100%);stroke-opacity:1;stroke-miterlimit:10;" d="M 182.507812 73.785156 L 172.621094 72.160156 "/>
<path style="fill:none;stroke-width:1.2;stroke-linecap:butt;stroke-linejoin:miter;stroke:rgb(0%,0%,100%);stroke-opacity:1;stroke-miterlimit:10;" d="M 171.105469 65.9375 L 163.167969 75.625 "/>
<path style="fill:none;stroke-width:1.2;stroke-linecap:butt;stroke-linejoin:miter;stroke:rgb(0%,0%,0%);stroke-opacity:1;stroke-miterlimit:10;" d="M 163.167969 75.625 L 155.226562 85.3125 "/>
<path style=" stroke:none;fill-rule:nonzero;fill:rgb(100%,100%,100%);fill-opacity:1;" d="M 168.105469 60.4375 L 175.105469 60.4375 L 175.105469 71.4375 L 168.105469 71.4375 Z M 168.105469 60.4375 "/>
<g style="fill:rgb(0%,0%,100%);fill-opacity:1;">
  <use xlink:href="#glyph0-1" x="168.105469" y="69.100586"/>
</g>
<path style="fill:none;stroke-width:1.2;stroke-linecap:butt;stroke-linejoin:miter;stroke:rgb(0%,0%,0%);stroke-opacity:1;stroke-miterlimit:10;" d="M 155.226562 85.3125 L 164.070312 108.75 "/>
<path style="fill:none;stroke-width:1.2;stroke-linecap:butt;stroke-linejoin:miter;stroke:rgb(0%,0%,0%);stroke-opacity:1;stroke-miterlimit:10;" d="M 150.597656 89.738281 L 157.671875 108.488281 "/>
<path style="fill:none;stroke-width:1.2;stroke-linecap:butt;stroke-linejoin:miter;stroke:rgb(0%,0%,0%);stroke-opacity:1;stroke-miterlimit:10;" d="M 130.507812 81.253906 L 155.226562 85.3125 "/>
<path style="fill:none;stroke-width:1.2;stroke-linecap:butt;stroke-linejoin:miter;stroke:rgb(0%,0%,0%);stroke-opacity:1;stroke-miterlimit:10;" d="M 164.070312 108.75 L 148.191406 128.128906 "/>
<path style="fill:none;stroke-width:1.2;stroke-linecap:butt;stroke-linejoin:miter;stroke:rgb(0%,0%,0%);stroke-opacity:1;stroke-miterlimit:10;" d="M 148.191406 128.128906 L 123.476562 124.066406 "/>
<path style="fill:none;stroke-width:1.2;stroke-linecap:butt;stroke-linejoin:miter;stroke:rgb(0%,0%,0%);stroke-opacity:1;stroke-miterlimit:10;" d="M 146.675781 121.90625 L 126.902344 118.65625 "/>
<path style="fill:none;stroke-width:1.2;stroke-linecap:butt;stroke-linejoin:miter;stroke:rgb(0%,0%,0%);stroke-opacity:1;stroke-miterlimit:10;" d="M 123.476562 124.066406 L 114.632812 100.628906 "/>
<path style="fill:none;stroke-width:1.2;stroke-linecap:butt;stroke-linejoin:miter;stroke:rgb(0%,0%,0%);stroke-opacity:1;stroke-miterlimit:10;" d="M 123.476562 124.066406 L 107.597656 143.441406 "/>
<path style="fill:none;stroke-width:1.2;stroke-linecap:butt;stroke-linejoin:miter;stroke:rgb(0%,0%,0%);stroke-opacity:1;stroke-miterlimit:10;" d="M 114.632812 100.628906 L 130.507812 81.253906 "/>
<path style="fill:none;stroke-width:1.2;stroke-linecap:butt;stroke-linejoin:miter;stroke:rgb(0%,0%,0%);stroke-opacity:1;stroke-miterlimit:10;" d="M 120.78125 102.425781 L 133.480469 86.925781 "/>
<path style="fill:none;stroke-width:1.2;stroke-linecap:butt;stroke-linejoin:miter;stroke:rgb(0%,0%,0%);stroke-opacity:1;stroke-miterlimit:10;" d="M 107.597656 143.441406 L 82.878906 139.378906 "/>
<path style="fill:none;stroke-width:1.2;stroke-linecap:butt;stroke-linejoin:miter;stroke:rgb(0%,0%,0%);stroke-opacity:1;stroke-miterlimit:10;" d="M 104.171875 148.851562 L 84.394531 145.601562 "/>
<path style="fill:none;stroke-width:1.2;stroke-linecap:butt;stroke-linejoin:miter;stroke:rgb(0%,0%,0%);stroke-opacity:1;stroke-miterlimit:10;" d="M 116.441406 166.878906 L 107.597656 143.441406 "/>
<path style="fill:none;stroke-width:1.2;stroke-linecap:butt;stroke-linejoin:miter;stroke:rgb(0%,0%,0%);stroke-opacity:1;stroke-miterlimit:10;" d="M 82.878906 139.378906 L 67.003906 158.757812 "/>
<path style="fill:none;stroke-width:1.2;stroke-linecap:butt;stroke-linejoin:miter;stroke:rgb(0%,0%,0%);stroke-opacity:1;stroke-miterlimit:10;" d="M 67.003906 158.757812 L 75.84375 182.195312 "/>
<path style="fill:none;stroke-width:1.2;stroke-linecap:butt;stroke-linejoin:miter;stroke:rgb(0%,0%,0%);stroke-opacity:1;stroke-miterlimit:10;" d="M 73.402344 159.019531 L 80.476562 177.769531 "/>
<path style="fill:none;stroke-width:1.2;stroke-linecap:butt;stroke-linejoin:miter;stroke:rgb(0%,0%,0%);stroke-opacity:1;stroke-miterlimit:10;" d="M 75.84375 182.195312 L 100.5625 186.253906 "/>
<path style="fill:none;stroke-width:1.2;stroke-linecap:butt;stroke-linejoin:miter;stroke:rgb(0%,0%,0%);stroke-opacity:1;stroke-miterlimit:10;" d="M 75.84375 182.195312 L 67.90625 191.882812 "/>
<path style="fill:none;stroke-width:1.2;stroke-linecap:butt;stroke-linejoin:miter;stroke:rgb(0%,0%,100%);stroke-opacity:1;stroke-miterlimit:10;" d="M 67.90625 191.882812 L 59.96875 201.570312 "/>
<path style="fill:none;stroke-width:1.2;stroke-linecap:butt;stroke-linejoin:miter;stroke:rgb(0%,0%,0%);stroke-opacity:1;stroke-miterlimit:10;" d="M 100.5625 186.253906 L 116.441406 166.878906 "/>
<path style="fill:none;stroke-width:1.2;stroke-linecap:butt;stroke-linejoin:miter;stroke:rgb(0%,0%,0%);stroke-opacity:1;stroke-miterlimit:10;" d="M 97.59375 180.582031 L 110.292969 165.082031 "/>
<path style="fill:none;stroke-width:1.2;stroke-linecap:butt;stroke-linejoin:miter;stroke:rgb(0%,0%,100%);stroke-opacity:1;stroke-miterlimit:10;" d="M 59.96875 201.570312 L 47.609375 199.539062 "/>
<path style="fill:none;stroke-width:1.2;stroke-linecap:butt;stroke-linejoin:miter;stroke:rgb(0%,0%,0%);stroke-opacity:1;stroke-miterlimit:10;" d="M 47.609375 199.539062 L 35.25 197.507812 "/>
<path style="fill:none;stroke-width:1.2;stroke-linecap:butt;stroke-linejoin:miter;stroke:rgb(0%,0%,100%);stroke-opacity:1;stroke-miterlimit:10;" d="M 59.96875 201.570312 L 64.390625 213.289062 "/>
<path style="fill:none;stroke-width:1.2;stroke-linecap:butt;stroke-linejoin:miter;stroke:rgb(0%,0%,0%);stroke-opacity:1;stroke-miterlimit:10;" d="M 64.390625 213.289062 L 68.808594 225.007812 "/>
<path style=" stroke:none;fill-rule:nonzero;fill:rgb(100%,100%,100%);fill-opacity:1;" d="M 56.96875 196.070312 L 63.96875 196.070312 L 63.96875 207.070312 L 56.96875 207.070312 Z M 56.96875 196.070312 "/>
<g style="fill:rgb(0%,0%,100%);fill-opacity:1;">
  <use xlink:href="#glyph0-1" x="56.96875" y="204.733398"/>
</g>
</g>
</svg>

<svg xmlns="http://www.w3.org/2000/svg" xmlns:xlink="http://www.w3.org/1999/xlink" width="300pt" height="300pt" viewBox="0 0 300 300"><defs><symbol overflow="visible"><path d="M.453 1.594v-7.938h4.5v7.938zm.5-.5h3.5v-6.938h-3.5zm0 0"/></symbol><symbol overflow="visible" id="a"><path d="M.89-6.563H2.08l2.906 5.485v-5.484h.86V0H4.656L1.75-5.484V0H.89zm0 0"/></symbol><symbol overflow="visible" id="b"><path d="M.89-6.563h.876v2.688H5v-2.688h.89V0H5v-3.125H1.766V0H.89zm0 0"/></symbol></defs><g><path fill="#fff" d="M0 0h300v300H0z"/><path d="M257.715 234.063l-8.84-23.438M248.875 210.625l-24.72-4.063M247.355 204.402l-19.773-3.25" stroke-width="1.2" stroke="#000" stroke-miterlimit="10" fill="none"/><path d="M264.75 191.25l-7.938 9.688" stroke-width="1.2" stroke="#00f" stroke-miterlimit="10" fill="none"/><path d="M256.813 200.938l-7.938 9.687M224.156 206.563l-4.422-11.72" stroke-width="1.2" stroke="#000" stroke-miterlimit="10" fill="none"/><path d="M219.734 194.844l-4.422-11.72M215.313 183.125l7.937-9.688" stroke-width="1.2" stroke="#00f" stroke-miterlimit="10" fill="none"/><path d="M223.25 173.438l7.94-9.688" stroke-width="1.2" stroke="#000" stroke-miterlimit="10" fill="none"/><path d="M221.46 184.922l6.352-7.75" stroke-width="1.2" stroke="#00f" stroke-miterlimit="10" fill="none"/><path d="M227.813 177.172l6.347-7.75" stroke-width="1.2" stroke="#000" stroke-miterlimit="10" fill="none"/><path d="M212.313 177.625h7v11h-7zm0 0" fill="#fff"/><use xlink:href="#a" x="212.313" y="186.288" fill="#00f"/><path d="M231.19 163.75l24.72 4.063M231.19 163.75l-8.842-23.438M255.91 167.813l4.418 11.718" stroke-width="1.2" stroke="#000" stroke-miterlimit="10" fill="none"/><path d="M260.328 179.53l4.422 11.72" stroke-width="1.2" stroke="#00f" stroke-miterlimit="10" fill="none"/><path d="M251.277 172.234l3.536 9.375" stroke-width="1.2" stroke="#000" stroke-miterlimit="10" fill="none"/><path d="M254.813 181.61l3.54 9.374" stroke-width="1.2" stroke="#00f" stroke-miterlimit="10" fill="none"/><path d="M261.75 185.75h7v11h-7zm0 0" fill="#fff"/><use xlink:href="#a" x="261.75" y="194.413" fill="#00f"/><path d="M222.348 140.313l-12.36-2.032" stroke-width="1.2" stroke="#000" stroke-miterlimit="10" fill="none"/><path d="M209.988 138.28l-12.36-2.03M197.63 136.25l-4.423-11.72" stroke-width="1.2" stroke="#00f" stroke-miterlimit="10" fill="none"/><path d="M193.207 124.53l-4.418-11.718" stroke-width="1.2" stroke="#000" stroke-miterlimit="10" fill="none"/><path d="M190.63 130.75h14v11h-14zm0 0" fill="#fff"/><g fill="#00f"><use xlink:href="#a" x="190.629" y="139.413"/><use xlink:href="#b" x="197.606" y="139.413"/></g><path d="M188.79 112.813l7.937-9.688" stroke-width="1.2" stroke="#000" stroke-miterlimit="10" fill="none"/><path d="M196.727 103.125l7.937-9.688" stroke-width="1.2" stroke="#00f" stroke-miterlimit="10" fill="none"/><path d="M185.816 107.14l6.352-7.75" stroke-width="1.2" stroke="#000" stroke-miterlimit="10" fill="none"/><path d="M192.168 99.39l6.352-7.75" stroke-width="1.2" stroke="#00f" stroke-miterlimit="10" fill="none"/><path d="M164.07 108.75l24.72 4.063" stroke-width="1.2" stroke="#000" stroke-miterlimit="10" fill="none"/><path d="M204.664 93.438l-4.422-11.72" stroke-width="1.2" stroke="#00f" stroke-miterlimit="10" fill="none"/><path d="M200.242 81.72L195.824 70" stroke-width="1.2" stroke="#000" stroke-miterlimit="10" fill="none"/><path d="M201.664 87.938h7v11h-7zm0 0" fill="#fff"/><use xlink:href="#a" x="201.664" y="96.601" fill="#00f"/><path d="M195.824 70l-12.36-2.03" stroke-width="1.2" stroke="#000" stroke-miterlimit="10" fill="none"/><path d="M183.465 67.97l-12.36-2.032" stroke-width="1.2" stroke="#00f" stroke-miterlimit="10" fill="none"/><path d="M192.395 75.41l-9.887-1.625" stroke-width="1.2" stroke="#000" stroke-miterlimit="10" fill="none"/><path d="M182.508 73.785l-9.887-1.625M171.105 65.938l-7.937 9.687" stroke-width="1.2" stroke="#00f" stroke-miterlimit="10" fill="none"/><path d="M163.168 75.625l-7.94 9.688" stroke-width="1.2" stroke="#000" stroke-miterlimit="10" fill="none"/><path d="M168.105 60.438h7v11h-7zm0 0" fill="#fff"/><use xlink:href="#a" x="168.105" y="69.101" fill="#00f"/><path d="M155.227 85.313l8.843 23.437M150.598 89.738l7.074 18.75M130.508 81.254l24.72 4.058M164.07 108.75l-15.88 19.38M148.19 128.13l-24.713-4.064M146.676 121.906l-19.774-3.25M123.477 124.066l-8.844-23.437M123.477 124.066l-15.88 19.375M114.633 100.63l15.875-19.376M120.78 102.426l12.7-15.5M107.598 143.44l-24.72-4.06M104.172 148.852l-19.777-3.25M116.44 166.88l-8.842-23.44M82.88 139.38l-15.876 19.378M67.004 158.758l8.84 23.437M73.402 159.02l7.075 18.75M75.844 182.195l24.72 4.06M75.844 182.195l-7.938 9.688" stroke-width="1.2" stroke="#000" stroke-miterlimit="10" fill="none"/><path d="M67.906 191.883l-7.937 9.687" stroke-width="1.2" stroke="#00f" stroke-miterlimit="10" fill="none"/><path d="M100.563 186.254l15.878-19.375M97.594 180.582l12.7-15.5" stroke-width="1.2" stroke="#000" stroke-miterlimit="10" fill="none"/><path d="M59.97 201.57l-12.36-2.03" stroke-width="1.2" stroke="#00f" stroke-miterlimit="10" fill="none"/><path d="M47.61 199.54l-12.36-2.032" stroke-width="1.2" stroke="#000" stroke-miterlimit="10" fill="none"/><path d="M59.97 201.57l4.42 11.72" stroke-width="1.2" stroke="#00f" stroke-miterlimit="10" fill="none"/><path d="M64.39 213.29l4.42 11.718" stroke-width="1.2" stroke="#000" stroke-miterlimit="10" fill="none"/><path d="M56.97 196.07h7v11h-7zm0 0" fill="#fff"/><use xlink:href="#a" x="56.969" y="204.733" fill="#00f"/></g></svg>
